images/icons/warranty.svg

<svg width="70" height="70" viewBox="0 0 70 70" fill="none" xmlns="http://www.w3.org/2000/svg">
<path d="M65.5624 33.7887C60.8545 33.7887 56.4845 31.4505 53.8727 27.5321L52.9356 26.1265L51.9985 27.5321C49.3866 31.4505 45.0166 33.7887 40.3088 33.7887H36.0412V51.8498C36.0412 56.2153 38.0066 60.3184 41.2909 63.0722H18.0206V58.567H32.6624V38.2938H9.01031V47.3041H2.25258V2.25258H51.8093V22.5258H54.0619V0H0V48.8967L16.4281 65.3248H44.7531L52.9356 70L62.4527 64.5623C67.0029 61.9628 69.8299 57.0905 69.8299 51.8498V33.7887H65.5624ZM15.768 61.4796L3.84515 49.5567H15.768V61.4796ZM11.2629 47.3041V40.5464H30.4098V56.3145H18.0206V47.3041H11.2629ZM67.5773 51.8498C67.5773 56.2852 65.1851 60.4063 61.3354 62.607L52.9356 67.4073L44.5357 62.607C40.6861 60.4063 38.2938 56.2852 38.2938 51.8498V36.0413H40.3088C45.2419 36.0413 49.8552 33.8281 52.9356 30.0516C56.016 33.8281 60.6293 36.0413 65.5624 36.0413H67.5773V51.8498Z" fill="#63A63E"/>
<path d="M63.0722 45.0516V51.8499C63.0722 54.6724 61.5494 57.2955 59.0997 58.6955L60.217 60.6507C63.3673 58.8509 65.3248 55.4788 65.3248 51.8499V45.0516H63.0722Z" fill="#63A63E"/>
<path d="M6.75764 4.50513V11.2629H47.3041V4.50513H6.75764ZM45.0515 9.01028H9.01022V6.75771H45.0515V9.01028Z" fill="#63A63E"/>
<path d="M62.2759 38.6239L47.3041 53.5957L43.5953 49.8868L42.0027 51.4794L47.3041 56.7808L63.8685 40.2165L62.2759 38.6239Z" fill="#63A63E"/>
<path d="M28.1573 42.799H13.5155V45.0515H28.1573V42.799Z" fill="#63A63E"/>
<path d="M28.1572 47.3041H20.2732V49.5567H28.1572V47.3041Z" fill="#63A63E"/>
<path d="M28.1572 51.8092H20.2732V54.0618H28.1572V51.8092Z" fill="#63A63E"/>
<path d="M42.7989 15.7681H6.75764V18.0206H42.7989V15.7681Z" fill="#63A63E"/>
<path d="M42.7989 20.2732H6.75764V22.5258H42.7989V20.2732Z" fill="#63A63E"/>
<path d="M42.7989 24.7783H6.75764V27.0309H42.7989V24.7783Z" fill="#63A63E"/>
<path d="M28.1571 29.2834H6.75764V31.536H28.1571V29.2834Z" fill="#63A63E"/>
<path d="M28.1571 33.7887H6.75764V36.0413H28.1571V33.7887Z" fill="#63A63E"/>
<path d="M47.3041 15.7681H45.0515V18.0206H47.3041V15.7681Z" fill="#63A63E"/>
<path d="M47.3041 20.2732H45.0515V22.5258H47.3041V20.2732Z" fill="#63A63E"/>
<path d="M47.3041 24.7783H45.0515V27.0309H47.3041V24.7783Z" fill="#63A63E"/>
<path d="M32.6623 29.2834H30.4097V31.536H32.6623V29.2834Z" fill="#63A63E"/>
<path d="M32.6623 33.7887H30.4097V36.0413H32.6623V33.7887Z" fill="#63A63E"/>
</svg>

<svg width="70" height="70" viewBox="0 0 70 70" fill="none" xmlns="http://www.w3.org/2000/svg"><path d="M65.562 33.789a14.02 14.02 0 0 1-11.69-6.257l-.936-1.405-.938 1.405a14.02 14.02 0 0 1-11.69 6.257h-4.267v18.06c0 4.366 1.966 8.47 5.25 11.223H18.02v-4.505h14.641V38.294H9.01v9.01H2.253V2.253h49.556v20.273h2.253V0H0v48.897l16.428 16.428h28.325L52.936 70l9.517-5.438A14.674 14.674 0 0 0 69.83 51.85V33.789h-4.268Zm-49.794 27.69L3.845 49.558h11.923V61.48Zm-4.505-14.175v-6.758H30.41v15.769H18.02v-9.01h-6.757Zm56.314 4.546c0 4.435-2.392 8.556-6.242 10.757l-8.4 4.8-8.4-4.8a12.418 12.418 0 0 1-6.241-10.757V36.04h2.015c4.933 0 9.546-2.213 12.627-5.99a16.267 16.267 0 0 0 12.626 5.99h2.015V51.85Z" fill="#63A63E"/><path d="M63.072 45.052v6.798a7.902 7.902 0 0 1-3.972 6.846l1.117 1.955a10.158 10.158 0 0 0 5.108-8.801v-6.798h-2.253ZM6.758 4.505v6.758h40.546V4.505H6.758ZM45.05 9.01H9.011V6.758h36.04V9.01ZM62.276 38.624 47.304 53.596l-3.709-3.71-1.592 1.593 5.301 5.302 16.564-16.564-1.592-1.593ZM28.157 42.799H13.515v2.252h14.642V42.8ZM28.157 47.304h-7.884v2.253h7.884v-2.253ZM28.157 51.81h-7.884v2.252h7.884v-2.253ZM42.799 15.768H6.758v2.253h36.04v-2.253ZM42.799 20.273H6.758v2.253h36.04v-2.253ZM42.799 24.778H6.758v2.253h36.04v-2.253ZM28.157 29.283h-21.4v2.253h21.4v-2.253ZM28.157 33.789h-21.4v2.252h21.4V33.79ZM47.304 15.768h-2.253v2.253h2.253v-2.253ZM47.304 20.273h-2.253v2.253h2.253v-2.253ZM47.304 24.778h-2.253v2.253h2.253v-2.253ZM32.662 29.283H30.41v2.253h2.252v-2.253ZM32.662 33.789H30.41v2.252h2.252V33.79Z" fill="#63A63E"/></svg>
